X: 22285
T: La Petite Suisse
R: reel
M: 4/4
K: Dmajor
|:FD (3DDD BAFA|(3ddd de fedc|BE (3EEE efed|(3ccc cB ABAG|
FD (3DDD BAFA|(3ddd de (3fff ef|gagf efed|1 cABc dBAG:|2 cABc d2 cd||
|:eB(3BBB gBfB|eB (3BBB gfec|dA (3AAA efed|(3ccc cB ABAG|
FD (3DDD BAFA|dcde f2 ef|gagf efed|1 cABc d2 cd:|2 cABc dBAG||

